!!!OTL: 517. Waldabenteuer.
!!!ARE: Europa, Mitteleuropa, Deutschland, Schleswig - Holstein; Nassau
!!!SCT: E0517B
!!!TXL: @@DE
!!!YEM: Copyright 1995, estate of Helmut Schaffrath.
**kern	**text
*ICvox	*
*M4/4	*
*met(c)	*
*k[]	*
*C:	*
!LO:TX:a:t=Aus Schleswig-Holſtein 1892 und dem Naſſauiſchen 1880.	!
{8cL	Als
8eJ	.
=1	=1
4g	ich
4g	an
4g	ei-
4cc	-nem
=2	=2
4g	Sommer-
8.gL	.
16fJ	.
4e}	-tag
{8.g	in
16g	der
=3	=3
4g	Schweiʒ
8.f	in
16e	der
4f	Schweiʒ
8.g	und
16f	Ti-
=4	=4
2e	-rol,
4r}	.
{8cL	Jm
8eJ	.
=5	=5
4g	grü-
4g	-nen
4g	Wald
4cc	im
=6	=6
4g	Schatten
8.gL	.
16fJ	.
4e}	lag
{8.g	in
16g	der
=7	=7
4g	Schweiʒ
8.f	in
16e	der
4f	Schweiʒ
8.g	und
16f	Ti-
=8	=8
2e	-rol,
4r}	.
{8c	wo
8c	die
=9	=9
8.a	Jä-
16a	-ger-
8.a	-büch-
16a	-ſen
8.cc	knal-
16cc	-len
8.b	und
16a	die
=10	=10
8.a	Schwei-
16g	-ʒer-
8.g	-mäd-
16g	-chen
8.cc	fal-
16cc}	-len,
{8.cc	in
16cc	der
=11	=11
4dd	Schweiʒ,
8.dd	in
16dd	der
4b	Schweiʒ
8.a	und
16b	Ti-
=12	=12
4cc	-rol.
4ee	.
4g}	.
{8c	wo
8c	die
=13	=13
8.a	Jä-
16a	-ger-
8.a	-büch-
16a	-ſen
8.cc	knal-
16cc	-len
8.b	und
16a	die
=14	=14
8.a	Schwei-
16g	-ʒer-
8.g	-mäd-
16g	-chen
8.cc	fal-
16cc}	-len,
{8.cc	in
16cc	der
=15	=15
4dd	Schweiʒ,
8.dd	in
16dd	der
4b	Schweiʒ
8.a	und
16b	Ti-
=16	=16
2cc	-rol.
4r}	.
==	==
!!!AGN: Liebes - Lied
!!!ONB: ESAC (Essen Associative Code) Database: ERK1
!!!AMT: simple quadruple
!!!AIN: vox
!!!EED: Helmut Schaffrath
!!!EEV: 1.0
!!!GTL: Liebeslieder [Neuere (aus dem 18. bis 19. Jahrh.) - Liebeslust]
!!!URL-scan: https://rosdok.uni-rostock.de/mcrviewer/recordIdentifier/rosdok_ppn745177662/iview2/phys_0342.iview2?x=-250.1417780126858&y=1104.7400758331642&scale=0.5392104374602399&rotation=0&layout=singlePageLayout
!!!ENC: Anna Maria Matuszewska
!!!EEV: 2024/10/12
*-	*-
